client/public/game_modes/bouncing_ball/frame20.svg

<svg xmlns="http://www.w3.org/2000/svg" width="437" height="483" fill="none"><path fill="#EDEDED" d="M239 75h20v20h-20V75Zm0 20h20v20h-20V95Zm20 20h20v20h-20v-20Zm0-20h20v20h-20V95Zm20 20h20v20h-20v-20Zm0 20h20v20h-20v-20Zm-20 0h20v20h-20v-20Zm-20-20h20v20h-20v-20Zm-20-20h20v20h-20V95Zm0-20h20v20h-20V75Z"/><path stroke="#EDEDED" stroke-width="5" d="M239 75h20v20m-20-20v20m0-20h-20v20m40 0h-20m20 0v20m0-20h20v20m-40-20v20m0-20h-20m40 20h-20m20 0h20m-20 0v20m-20-20v20h20m-20-20h-20V95m60 20v20m0-20h20v20m-20 0h-20m20 0h20m-20 0v20m-20-20v20h20m20-20v20h-20"/><path fill="#949494" d="M119 95h20v20h-20V95Zm-20 20h20v20H99v-20Zm0 60h20v20H99v-20Zm0 20h20v20H99v-20Zm0 20h20v20H99v-20Zm100 60h20v20h-20v-20Zm60 0h20v20h-20v-20Zm-20 0h20v20h-20v-20Zm-20 0h20v20h-20v-20Zm-40-20h20v20h-20v-20Zm0 20h20v20h-20v-20Zm-20-20h20v20h-20v-20Zm0 20h20v20h-20v-20Zm-20-40h20v20h-20v-20Zm0 20h20v20h-20v-20Zm-20-40h20v20h-20v-20Zm0 20h20v20h-20v-20Zm0-40h20v20h-20v-20Zm-20-40h20v20H99v-20Zm0-20h20v20H99v-20Z"/><path stroke="#949494" stroke-width="5" d="M119 115h20V95h-20v20Zm0 0H99v20m20-20v20m0 0H99m20 0v20m-20-20v20m0 20h20m-20 0v20m0-20v-20m20 20v20m0-20v-20m0 40H99m20 0v20m0-20h20v20m-40-20v20m20 0H99m20 0v20m0-20h20m-40 0v20h20m0 0h20m-20 0v20h20m60 20h20m-20 0v20m0-20v-20h-20m20 20h-20m40 0v20m0-20h20m-20 20h-20m20 0h20m-40 0h-20m80-20h20v20h-20m0-20v20m0-20h-20m20 20h-20m0-20v20m-60-40v20m0-20h-20m20 20v20m0-20h-20m20 20h-20v-20m0-20v20m0-20v-20h-20m20 20h-20m20 20h-20v-20m0-20v20m0-20v-20m-40-60h20"/><path fill="#D9D9D9" d="M139 75h20v20h-20V75Zm40-20h20v20h-20V55Zm0 20h20v20h-20V75Zm20-20h20v20h-20V55Zm40 0h20v20h-20V55Zm20 0h20v20h-20V55Zm0 20h20v20h-20V75Zm20 0h20v20h-20V75Zm0 20h20v20h-20V95Zm20 0h20v20h-20V95Zm0 60h20v20h-20v-20Zm0-20h20v20h-20v-20Zm0 40h20v20h-20v-20Zm0 40h20v20h-20v-20Zm0-100h20v20h-20v-20Zm0 80h20v20h-20v-20Zm20-40h20v20h-20v-20Zm0-20h20v20h-20v-20Zm0 40h20v20h-20v-20Zm0-60h20v20h-20v-20Zm0 80h20v20h-20v-20Zm-40-20h20v20h-20v-20Zm0-20h20v20h-20v-20Zm0 40h20v20h-20v-20Zm0 40h20v20h-20v-20Zm-20 20h20v20h-20v-20Zm60-40h20v20h-20v-20Zm-20 20h20v20h-20v-20Zm-20 20h20v20h-20v-20Zm-120-20h20v20h-20v-20Zm40 20h20v20h-20v-20Zm-40-60h20v20h-20v-20Zm-20 0h20v20h-20v-20Zm20-20h20v20h-20v-20Zm-20-20h20v20h-20v-20Zm0-20h20v20h-20v-20Zm20 0h20v20h-20v-20Zm-20-20h20v20h-20v-20Zm20 0h20v20h-20v-20Zm-20-20h20v20h-20V95Zm20 60h20v20h-20v-20Zm0-60h20v20h-20V95Zm-40 20h20v20h-20v-20Zm0 60h20v20h-20v-20Zm0-20h20v20h-20v-20Zm0-20h20v20h-20v-20Zm20 40h20v20h-20v-20Zm20 40h20v20h-20v-20Zm-20 0h20v20h-20v-20Zm40 0h20v20h-20v-20Zm0 20h20v20h-20v-20Zm20 0h20v20h-20v-20Zm20 20h20v20h-20v-20Zm20 0h20v20h-20v-20Zm40-40h20v20h-20v-20ZM179 95h20v20h-20V95Zm0 40h20v20h-20v-20Zm0-20h20v20h-20v-20Zm0 40h20v20h-20v-20Zm0 40h20v20h-20v-20Zm0-20h20v20h-20v-20Zm20-80h20v20h-20V95Zm0 20h20v20h-20v-20Zm0 40h20v20h-20v-20Zm0-20h20v20h-20v-20Zm0 40h20v20h-20v-20Zm0 40h20v20h-20v-20Zm0-20h20v20h-20v-20Zm20-80h20v20h-20v-20Zm0 20h20v20h-20v-20Zm0 40h20v20h-20v-20Zm0-20h20v20h-20v-20Zm0 40h20v20h-20v-20Zm0 40h20v20h-20v-20Zm0-20h20v20h-20v-20Zm20-80h20v20h-20v-20Zm0 20h20v20h-20v-20Zm0 40h20v20h-20v-20Zm0-20h20v20h-20v-20Zm0 60h20v20h-20v-20Zm0-20h20v20h-20v-20Zm20-60h20v20h-20v-20Zm0 20h20v20h-20v-20Zm0 40h20v20h-20v-20Zm0 20h20v20h-20v-20Zm0-40h20v20h-20v-20ZM199 75h20v20h-20V75Zm20-20h20v20h-20V55Zm-60 0h20v20h-20V55Zm0 20h20v20h-20V75Z"/><path stroke="#D9D9D9" stroke-width="5" d="M159 75h-20v20m20-20v20m0-20h20m-20 0V55h20m-20 40h-20m20 0v20m0-20h20m-40 0v20m40-60h20m-20 0v20m20-20v20m0-20h20m-20 20h-20m20 0v20m0-20h20m-40 0v20m20 0h-20m20 0v20m0-20h20m-40 0v20m40-60v20m0-20h20m-20 20v20m0-20h20m0-20h20m-20 0v20m20-20v20m0-20h20v20m-20 0h-20m20 0h20m-20 0v20h20m0-20v20m0-20h20v20m-20 0h20m-20 0v20h20m0-20v20m0-20h20v20m-20 0h20m-20 0v20m20-20v20m0-20h20v20m-40 20h20m-20 0v20m0-20v-20m0 20h-20m40 0v20m0-20v-20m0 20h20m-20 20h-20m20 0v20m0-20h20m-40 0v20m0-20h-20m20-40h20m0 0h20m-20 60h-20m20 0v20m0-20h20m-40 0v20m0-20h-20m20 20h20m-20 0v20m0-20h-20m40 0v20m0-20h20m-20 20h-20m20 0h20v-20m-20 20v20h-20m0-20h-20m20 0v20m40-100v20m0-20v-20m0 40v20m0 0v20m-60-40v20m0-20v-20m0 20h-20m20 20v20m0-20h-20m20-40h-20m20 60v20m0-20h-20m20 20v20m0-20h-20m40 20h-20m20 0v20h-20m0-20h-20m20 0v20m-20-20v20m0-20h-20m20 0v-20m20 40h-20m0 0h-20m-80-40h20m-20 0v20h20m-20-20v-20m0 20h-20v-20m40 20v20m0-20v-20m0 20h20m-20 20h20m0 0h20m-20 0v20h20m-20-20v-20m20 20v20m0-20v-20m0 20h20m-20 20h20m-80-80h20m-20 0v20m0-20h-20m20 0v-20m20 20v20m0-20v-20m0 20h20m-20 20h-20m20 0h20m-40 0h-20m0-20v20m0-20v-20m0 20h-20v-20m40 0h20m-20 0v-20m0 20h-20m40 0v-20m0 20h20m-60-20h20m-20 0v20m0-20v-20m0 20h-20m40 0v-20m0 20h20m-40 20h-20m20-40h20m-20 0v-20m0 20h-20m40 0h20m-20 0v-20m20 20v20m0-20v-20m0 20h20m-20 20h20m-60-40h20m-20 0h-20v20m40-20h20m0 0h20m-80 20v20m0 20v-20m80 60v20m0-20v-20m0 20h20m-20 20h20m0 0v-20m0 20h20m0 20v20m0-20v-20m-40-120v20m0-20h20m-20 20v20m0-20h20m-20 20v20m0-20h20m-20 20v20m0-20h20m-20 20h20m0-100v20m0 0v20m0-20h20v20m-20 0v20m0-20h20m-20 20v20m0-20h20m-20 20v20m0-20h20m-20 20v20m0-20h20m-20 20h20m0-80v20m0-20h20v20m-20 0v20m0-20h20m-20 20v20m0-20h20m-20 20v20m0-20h20m-20 20v20m0-20h20m-20 20h20m0-80v20m0 0v20m0 0v20m0 0v20"/></svg>

<svg width="437" height="483" viewBox="0 0 437 483" fill="none" xmlns="http://www.w3.org/2000/svg">
<path d="M239 75H259V95H239V75Z" fill="#EDEDED"/>
<path d="M239 95H259V115H239V95Z" fill="#EDEDED"/>
<path d="M259 115H279V135H259V115Z" fill="#EDEDED"/>
<path d="M259 95H279V115H259V95Z" fill="#EDEDED"/>
<path d="M279 115H299V135H279V115Z" fill="#EDEDED"/>
<path d="M279 135H299V155H279V135Z" fill="#EDEDED"/>
<path d="M259 135H279V155H259V135Z" fill="#EDEDED"/>
<path d="M239 115H259V135H239V115Z" fill="#EDEDED"/>
<path d="M219 95H239V115H219V95Z" fill="#EDEDED"/>
<path d="M219 75H239V95H219V75Z" fill="#EDEDED"/>
<path d="M239 75H259V95M239 75V95M239 75H219V95M259 95H239M259 95V115M259 95H279V115M239 95V115M239 95H219M259 115H239M259 115H279M259 115V135M239 115V135H259M239 115H219V95M279 115V135M279 115H299V135M279 135H259M279 135H299M279 135V155M259 135V155H279M299 135V155H279" stroke="#EDEDED" stroke-width="5"/>
<path d="M119 95H139V115H119V95Z" fill="#949494"/>
<path d="M99 115H119V135H99V115Z" fill="#949494"/>
<path d="M99 175H119V195H99V175Z" fill="#949494"/>
<path d="M99 195H119V215H99V195Z" fill="#949494"/>
<path d="M99 215H119V235H99V215Z" fill="#949494"/>
<path d="M199 275H219V295H199V275Z" fill="#949494"/>
<path d="M259 275H279V295H259V275Z" fill="#949494"/>
<path d="M239 275H259V295H239V275Z" fill="#949494"/>
<path d="M219 275H239V295H219V275Z" fill="#949494"/>
<path d="M179 255H199V275H179V255Z" fill="#949494"/>
<path d="M179 275H199V295H179V275Z" fill="#949494"/>
<path d="M159 255H179V275H159V255Z" fill="#949494"/>
<path d="M159 275H179V295H159V275Z" fill="#949494"/>
<path d="M139 235H159V255H139V235Z" fill="#949494"/>
<path d="M139 255H159V275H139V255Z" fill="#949494"/>
<path d="M119 215H139V235H119V215Z" fill="#949494"/>
<path d="M119 235H139V255H119V235Z" fill="#949494"/>
<path d="M119 195H139V215H119V195Z" fill="#949494"/>
<path d="M99 155H119V175H99V155Z" fill="#949494"/>
<path d="M99 135H119V155H99V135Z" fill="#949494"/>
<path d="M119 115H139V95H119V115ZM119 115H99V135M119 115V135M119 135H99M119 135V155M99 135V155M99 175H119M99 175V195M99 175V155M119 175V195M119 175V155M119 195H99M119 195V215M119 195H139V215M99 195V215M119 215H99M119 215V235M119 215H139M99 215V235H119M119 235H139M119 235V255H139M199 275H219M199 275V295M199 275V255H179M199 275H179M219 275V295M219 275H239M219 295H199M219 295H239M199 295H179M259 275H279V295H259M259 275V295M259 275H239M259 295H239M239 275V295M179 255V275M179 255H159M179 275V295M179 275H159M179 295H159V275M159 255V275M159 255V235H139M159 255H139M159 275H139V255M139 235V255M139 235V215M99 155H119" stroke="#949494" stroke-width="5"/>
<path d="M139 75H159V95H139V75Z" fill="#D9D9D9"/>
<path d="M179 55H199V75H179V55Z" fill="#D9D9D9"/>
<path d="M179 75H199V95H179V75Z" fill="#D9D9D9"/>
<path d="M199 55H219V75H199V55Z" fill="#D9D9D9"/>
<path d="M239 55H259V75H239V55Z" fill="#D9D9D9"/>
<path d="M259 55H279V75H259V55Z" fill="#D9D9D9"/>
<path d="M259 75H279V95H259V75Z" fill="#D9D9D9"/>
<path d="M279 75H299V95H279V75Z" fill="#D9D9D9"/>
<path d="M279 95H299V115H279V95Z" fill="#D9D9D9"/>
<path d="M299 95H319V115H299V95Z" fill="#D9D9D9"/>
<path d="M299 155H319V175H299V155Z" fill="#D9D9D9"/>
<path d="M299 135H319V155H299V135Z" fill="#D9D9D9"/>
<path d="M299 175H319V195H299V175Z" fill="#D9D9D9"/>
<path d="M299 215H319V235H299V215Z" fill="#D9D9D9"/>
<path d="M299 115H319V135H299V115Z" fill="#D9D9D9"/>
<path d="M299 195H319V215H299V195Z" fill="#D9D9D9"/>
<path d="M319 155H339V175H319V155Z" fill="#D9D9D9"/>
<path d="M319 135H339V155H319V135Z" fill="#D9D9D9"/>
<path d="M319 175H339V195H319V175Z" fill="#D9D9D9"/>
<path d="M319 115H339V135H319V115Z" fill="#D9D9D9"/>
<path d="M319 195H339V215H319V195Z" fill="#D9D9D9"/>
<path d="M279 175H299V195H279V175Z" fill="#D9D9D9"/>
<path d="M279 155H299V175H279V155Z" fill="#D9D9D9"/>
<path d="M279 195H299V215H279V195Z" fill="#D9D9D9"/>
<path d="M279 235H299V255H279V235Z" fill="#D9D9D9"/>
<path d="M259 255H279V275H259V255Z" fill="#D9D9D9"/>
<path d="M319 215H339V235H319V215Z" fill="#D9D9D9"/>
<path d="M299 235H319V255H299V235Z" fill="#D9D9D9"/>
<path d="M279 255H299V275H279V255Z" fill="#D9D9D9"/>
<path d="M159 235H179V255H159V235Z" fill="#D9D9D9"/>
<path d="M199 255H219V275H199V255Z" fill="#D9D9D9"/>
<path d="M159 195H179V215H159V195Z" fill="#D9D9D9"/>
<path d="M139 195H159V215H139V195Z" fill="#D9D9D9"/>
<path d="M159 175H179V195H159V175Z" fill="#D9D9D9"/>
<path d="M139 155H159V175H139V155Z" fill="#D9D9D9"/>
<path d="M139 135H159V155H139V135Z" fill="#D9D9D9"/>
<path d="M159 135H179V155H159V135Z" fill="#D9D9D9"/>
<path d="M139 115H159V135H139V115Z" fill="#D9D9D9"/>
<path d="M159 115H179V135H159V115Z" fill="#D9D9D9"/>
<path d="M139 95H159V115H139V95Z" fill="#D9D9D9"/>
<path d="M159 155H179V175H159V155Z" fill="#D9D9D9"/>
<path d="M159 95H179V115H159V95Z" fill="#D9D9D9"/>
<path d="M119 115H139V135H119V115Z" fill="#D9D9D9"/>
<path d="M119 175H139V195H119V175Z" fill="#D9D9D9"/>
<path d="M119 155H139V175H119V155Z" fill="#D9D9D9"/>
<path d="M119 135H139V155H119V135Z" fill="#D9D9D9"/>
<path d="M139 175H159V195H139V175Z" fill="#D9D9D9"/>
<path d="M159 215H179V235H159V215Z" fill="#D9D9D9"/>
<path d="M139 215H159V235H139V215Z" fill="#D9D9D9"/>
<path d="M179 215H199V235H179V215Z" fill="#D9D9D9"/>
<path d="M179 235H199V255H179V235Z" fill="#D9D9D9"/>
<path d="M199 235H219V255H199V235Z" fill="#D9D9D9"/>
<path d="M219 255H239V275H219V255Z" fill="#D9D9D9"/>
<path d="M239 255H259V275H239V255Z" fill="#D9D9D9"/>
<path d="M279 215H299V235H279V215Z" fill="#D9D9D9"/>
<path d="M179 95H199V115H179V95Z" fill="#D9D9D9"/>
<path d="M179 135H199V155H179V135Z" fill="#D9D9D9"/>
<path d="M179 115H199V135H179V115Z" fill="#D9D9D9"/>
<path d="M179 155H199V175H179V155Z" fill="#D9D9D9"/>
<path d="M179 195H199V215H179V195Z" fill="#D9D9D9"/>
<path d="M179 175H199V195H179V175Z" fill="#D9D9D9"/>
<path d="M199 95H219V115H199V95Z" fill="#D9D9D9"/>
<path d="M199 115H219V135H199V115Z" fill="#D9D9D9"/>
<path d="M199 155H219V175H199V155Z" fill="#D9D9D9"/>
<path d="M199 135H219V155H199V135Z" fill="#D9D9D9"/>
<path d="M199 175H219V195H199V175Z" fill="#D9D9D9"/>
<path d="M199 215H219V235H199V215Z" fill="#D9D9D9"/>
<path d="M199 195H219V215H199V195Z" fill="#D9D9D9"/>
<path d="M219 115H239V135H219V115Z" fill="#D9D9D9"/>
<path d="M219 135H239V155H219V135Z" fill="#D9D9D9"/>
<path d="M219 175H239V195H219V175Z" fill="#D9D9D9"/>
<path d="M219 155H239V175H219V155Z" fill="#D9D9D9"/>
<path d="M219 195H239V215H219V195Z" fill="#D9D9D9"/>
<path d="M219 235H239V255H219V235Z" fill="#D9D9D9"/>
<path d="M219 215H239V235H219V215Z" fill="#D9D9D9"/>
<path d="M239 135H259V155H239V135Z" fill="#D9D9D9"/>
<path d="M239 155H259V175H239V155Z" fill="#D9D9D9"/>
<path d="M239 195H259V215H239V195Z" fill="#D9D9D9"/>
<path d="M239 175H259V195H239V175Z" fill="#D9D9D9"/>
<path d="M239 235H259V255H239V235Z" fill="#D9D9D9"/>
<path d="M239 215H259V235H239V215Z" fill="#D9D9D9"/>
<path d="M259 155H279V175H259V155Z" fill="#D9D9D9"/>
<path d="M259 175H279V195H259V175Z" fill="#D9D9D9"/>
<path d="M259 215H279V235H259V215Z" fill="#D9D9D9"/>
<path d="M259 235H279V255H259V235Z" fill="#D9D9D9"/>
<path d="M259 195H279V215H259V195Z" fill="#D9D9D9"/>
<path d="M199 75H219V95H199V75Z" fill="#D9D9D9"/>
<path d="M219 55H239V75H219V55Z" fill="#D9D9D9"/>
<path d="M159 55H179V75H159V55Z" fill="#D9D9D9"/>
<path d="M159 75H179V95H159V75Z" fill="#D9D9D9"/>
<path d="M159 75H139V95M159 75V95M159 75H179M159 75V55H179M159 95H139M159 95V115M159 95H179M139 95V115M179 55H199M179 55V75M199 55V75M199 55H219M199 75H179M199 75V95M199 75H219M179 75V95M199 95H179M199 95V115M199 95H219M179 95V115M219 55V75M219 55H239M219 75V95M219 75H239M239 55H259M239 55V75M259 55V75M259 55H279V75M259 75H239M259 75H279M259 75V95H279M279 75V95M279 75H299V95M279 95H299M279 95V115H299M299 95V115M299 95H319V115M299 115H319M299 115V135M319 115V135M319 115H339V135M299 155H319M299 155V175M299 155V135M299 155H279M319 155V175M319 155V135M319 155H339M319 175H299M319 175V195M319 175H339M299 175V195M299 175H279M299 135H319M319 135H339M319 195H299M319 195V215M319 195H339M299 195V215M299 195H279M299 215H319M299 215V235M299 215H279M319 215V235M319 215H339M319 235H299M319 235H339V215M319 235V255H299M299 235H279M299 235V255M339 155V175M339 155V135M339 175V195M339 195V215M279 175V195M279 175V155M279 175H259M279 195V215M279 195H259M279 155H259M279 215V235M279 215H259M279 235V255M279 235H259M299 255H279M299 255V275H279M279 255H259M279 255V275M259 255V275M259 255H239M259 255V235M279 275H259M259 275H239M159 235H179M159 235V255H179M159 235V215M159 235H139V215M179 235V255M179 235V215M179 235H199M179 255H199M199 255H219M199 255V275H219M199 255V235M219 255V275M219 255V235M219 255H239M219 275H239M159 195H179M159 195V215M159 195H139M159 195V175M179 195V215M179 195V175M179 195H199M179 215H159M179 215H199M159 215H139M139 195V215M139 195V175M139 195H119V175M159 175H179M159 175V155M159 175H139M179 175V155M179 175H199M139 155H159M139 155V175M139 155V135M139 155H119M159 155V135M159 155H179M139 175H119M139 135H159M139 135V115M139 135H119M159 135H179M159 135V115M179 135V155M179 135V115M179 135H199M179 155H199M139 115H159M139 115H119V135M159 115H179M179 115H199M119 135V155M119 175V155M199 215V235M199 215V195M199 215H219M199 235H219M219 235V215M219 235H239M239 255V275M239 255V235M199 115V135M199 115H219M199 135V155M199 135H219M199 155V175M199 155H219M199 175V195M199 175H219M199 195H219M219 95V115M219 115V135M219 115H239V135M219 135V155M219 135H239M219 155V175M219 155H239M219 175V195M219 175H239M219 195V215M219 195H239M219 215H239M239 135V155M239 135H259V155M239 155V175M239 155H259M239 175V195M239 175H259M239 195V215M239 195H259M239 215V235M239 215H259M239 235H259M259 155V175M259 175V195M259 195V215M259 215V235" stroke="#D9D9D9" stroke-width="5"/>
</svg>
